public/assets/tracks/cloud.svg

<svg fill="none" height="130" viewBox="0 0 131 130" width="131" xmlns="http://www.w3.org/2000/svg"><g stroke="#fff" stroke-linecap="round" stroke-linejoin="round" stroke-width="10.257"><path d="m27.7669 60.217c-5.123 1.2891-9.5989 4.4046-12.5869 8.7611-2.988 4.3566-4.2823 9.6542-3.6397 14.8977.6425 5.2436 3.1777 10.072 7.1292 13.5781 3.9514 3.5061 9.0472 5.4491 14.3299 5.4631h59.5834c3.8244-.003 7.6052-.816 11.0922-2.385 3.488-1.5685 6.604-3.8583 9.143-6.7183 2.539-2.8599 4.443-6.2252 5.588-9.8742 1.145-3.6491 1.504-7.4992 1.053-11.297-.45-3.7977-1.7-7.457-3.667-10.7369s-4.606-6.1062-7.743-8.2927c-3.138-2.1865-6.703-3.6837-10.4612-4.393-3.7581-.7094-7.6237-.6148-11.3425.2775l-7.2042 1.9609"/><path d="m86.2453 49.4976c-1.8514-7.3311-6.4211-13.6839-12.7827-17.7707s-14.0392-5.6017-21.4764-4.2377-14.0775 5.5048-18.5748 11.5832c-4.4973 6.0783-6.5152 13.6393-5.6445 21.1502 0 0 .8288 4.7775 2.5242 7.4858"/></g></svg>

<svg xmlns="http://www.w3.org/2000/svg" width="131" height="130" fill="none" viewBox="0 0 131 130"><path stroke="#fff" stroke-linecap="round" stroke-linejoin="round" stroke-width="10.257" d="M27.7669 60.217C22.6439 61.5061 18.168 64.6216 15.18 68.9781C12.192 73.3347 10.8977 78.6323 11.5403 83.8758C12.1828 89.1194 14.718 93.9478 18.6695 97.4539C22.6209 100.96 27.7167 102.903 32.9994 102.917H92.5828C96.4072 102.914 100.188 102.101 103.675 100.532C107.163 98.9635 110.279 96.6737 112.818 93.8137C115.357 90.9538 117.261 87.5885 118.406 83.9395C119.551 80.2904 119.91 76.4403 119.459 72.6425C119.009 68.8448 117.759 65.1855 115.792 61.9056C113.825 58.6257 111.186 55.7994 108.049 53.6129C104.911 51.4264 101.346 49.9292 97.5878 49.2199C93.8297 48.5105 89.9641 48.6051 86.2453 49.4974L79.0411 51.4583"/><path stroke="#fff" stroke-linecap="round" stroke-linejoin="round" stroke-width="10.257" d="M86.2453 49.4976C84.3939 42.1665 79.8242 35.8137 73.4626 31.7269C67.101 27.6401 59.4234 26.1252 51.9862 27.4892C44.549 28.8532 37.9087 32.994 33.4114 39.0724C28.9141 45.1507 26.8962 52.7117 27.7669 60.2226C27.7669 60.2226 28.5957 65.0001 30.2911 67.7084"/></svg>
